projects/vfh1/img/icons/adv-2.svg

<svg width="23" height="23" viewBox="0 0 23 23" fill="none" xmlns="http://www.w3.org/2000/svg">
<path d="M11.4707 11.5C9.97539 11.5 8.69531 10.9676 7.63047 9.90273C6.56563 8.83789 6.0332 7.55781 6.0332 6.0625C6.0332 4.56719 6.56563 3.28711 7.63047 2.22227C8.69531 1.15742 9.97539 0.625 11.4707 0.625C12.966 0.625 14.2461 1.15742 15.3109 2.22227C16.3758 3.28711 16.9082 4.56719 16.9082 6.0625C16.9082 7.55781 16.3758 8.83789 15.3109 9.90273C14.2461 10.9676 12.966 11.5 11.4707 11.5ZM3.31445 22.375C2.5668 22.375 1.92698 22.109 1.39502 21.577C0.86214 21.0442 0.595703 20.4039 0.595703 19.6562V18.5688C0.595703 17.7984 0.794172 17.0902 1.19111 16.444C1.58714 15.7988 2.11367 15.3063 2.7707 14.9664C4.17539 14.2641 5.60273 13.7371 7.05273 13.3855C8.50273 13.0347 9.97539 12.8594 11.4707 12.8594C12.966 12.8594 14.4387 13.0347 15.8887 13.3855C17.3387 13.7371 18.766 14.2641 20.1707 14.9664C20.8277 15.3063 21.3543 15.7988 21.7503 16.444C22.1472 17.0902 22.3457 17.7984 22.3457 18.5688V19.6562C22.3457 20.4039 22.0797 21.0442 21.5478 21.577C21.0149 22.109 20.3746 22.375 19.627 22.375H3.31445Z" fill="#42474D"/>
</svg>

<svg width="23" height="23" fill="none" xmlns="http://www.w3.org/2000/svg"><path d="M11.47 11.5c-1.495 0-2.775-.532-3.84-1.597-1.064-1.065-1.597-2.345-1.597-3.84 0-1.496.533-2.776 1.597-3.84C8.695 1.156 9.975.624 11.47.624c1.496 0 2.776.532 3.84 1.597 1.066 1.065 1.598 2.345 1.598 3.84 0 1.496-.532 2.776-1.597 3.84-1.065 1.066-2.345 1.598-3.84 1.598zM3.315 22.375a2.617 2.617 0 01-1.919-.798 2.619 2.619 0 01-.8-1.92v-1.088c0-.77.2-1.479.596-2.125a3.962 3.962 0 011.58-1.478 20.21 20.21 0 014.282-1.58 18.708 18.708 0 014.418-.527c1.495 0 2.968.176 4.418.527a20.21 20.21 0 014.282 1.58c.657.34 1.183.833 1.58 1.478.396.646.595 1.354.595 2.125v1.087c0 .748-.266 1.388-.798 1.921a2.621 2.621 0 01-1.921.798H3.314z" fill="#42474D"/></svg>
